assets/1. P-Z/Wheelchair symbol/Color/Wheelchair.Symbol-color.svg

<svg width="100%" height="100%" viewBox="0 0 32 32" fill="none" xmlns="http://www.w3.org/2000/svg">
<g filter="url(#filter0_ii_18590_392)">
<rect x="2.48657" y="1.6875" width="27.875" height="27.875" rx="3.6" fill="url(#paint0_linear_18590_392)"/>
<rect x="2.48657" y="1.6875" width="27.875" height="27.875" rx="3.6" fill="url(#paint1_radial_18590_392)"/>
</g>
<g filter="url(#filter1_f_18590_392)">
<path d="M28.6741 4.1875V27.0625" stroke="url(#paint2_linear_18590_392)" stroke-width="1.5" stroke-linecap="round"/>
</g>
<g filter="url(#filter2_f_18590_392)">
<path d="M5.95044 3.5H27.7317" stroke="url(#paint3_linear_18590_392)" stroke-width="1.5" stroke-linecap="round"/>
</g>
<g filter="url(#filter3_f_18590_392)">
<path d="M23.1741 8.125C23.1741 9.22957 22.2786 10.125 21.1741 10.125C20.0695 10.125 19.1741 9.22957 19.1741 8.125C19.1741 7.02043 20.0695 6.125 21.1741 6.125C22.2786 6.125 23.1741 7.02043 23.1741 8.125Z" fill="#579FFF"/>
<path d="M17.1741 19.125C17.1741 21.3341 15.3832 23.125 13.1741 23.125C10.9649 23.125 9.17407 21.3341 9.17407 19.125C9.17407 16.9659 10.8847 15.2064 13.0245 15.1277C13.1164 15.1244 13.2013 15.0745 13.2449 14.9935L14.0438 13.5099C14.1268 13.3556 14.0295 13.1663 13.8548 13.1521C13.6347 13.1342 13.4078 13.125 13.1741 13.125C9.86036 13.125 7.17407 15.8113 7.17407 19.125C7.17407 22.4387 9.86036 25.125 13.1741 25.125C16.4191 25.125 19.0624 22.549 19.1706 19.3303C19.1746 19.2112 19.09 19.1082 18.9731 19.0848L17.4811 18.7864C17.3197 18.7541 17.1716 18.8841 17.1736 19.0487C17.1739 19.074 17.1741 19.0994 17.1741 19.125Z" fill="#579FFF"/>
<path d="M14.9641 11.082C15.8274 10.8204 16.2089 10.7847 16.7603 11.0354C16.8569 11.0793 17.0158 11.1949 17.2127 11.3952C17.2785 11.4621 17.3419 11.5316 17.4017 11.6006C17.4308 11.6342 17.4335 11.6831 17.4088 11.7201L15.2641 14.9371C14.6653 15.8354 15.183 17.0521 16.244 17.245L20.9952 18.1089C21.0612 18.1209 21.1965 18.1736 21.377 18.4573C21.5604 18.7455 21.7211 19.1705 21.8482 19.6988C22.1006 20.749 22.1622 21.9542 22.1738 22.6294C22.1878 23.436 22.8406 24.125 23.6874 24.125H24.6713L24.6741 24.125C25.2264 24.125 25.6741 23.6773 25.6741 23.125C25.6741 22.5727 25.2264 22.125 24.6741 22.125H24.2558C24.2022 22.125 24.1581 22.0829 24.1557 22.0293C24.121 21.2714 24.0297 20.2168 23.7927 19.2313C23.6414 18.6017 23.416 17.9363 23.0643 17.3836C22.7098 16.8265 22.1611 16.2881 21.353 16.1411L17.5001 15.4406C17.4293 15.4277 17.3949 15.3466 17.4348 15.2867L19.3243 12.4524C19.6514 11.9618 19.677 11.2854 19.2901 10.7623C19.1397 10.559 18.9119 10.2707 18.6387 9.99288C18.3777 9.72744 18.0149 9.40873 17.5879 9.21463C16.3617 8.65726 15.3894 8.86332 14.3841 9.16797C13.5799 9.41166 12.948 9.89889 12.5402 10.2826C12.3307 10.4797 12.1658 10.6633 12.0516 10.7997C11.9942 10.8682 11.9489 10.9257 11.9164 10.9683C11.9001 10.9896 11.887 11.0072 11.8771 11.0206L11.8707 11.0294C11.7472 11.1958 11.6741 11.4019 11.6741 11.625C11.6741 12.1773 12.1218 12.625 12.6741 12.625C13.0117 12.625 13.3103 12.4577 13.4913 12.2014C13.4942 12.1975 13.499 12.1911 13.5055 12.1826C13.5216 12.1615 13.5484 12.1273 13.5851 12.0836C13.6589 11.9954 13.7696 11.8719 13.9106 11.7393C14.2035 11.4637 14.5717 11.2009 14.9641 11.082Z" fill="#579FFF"/>
</g>
<g filter="url(#filter4_ii_18590_392)">
<path d="M23.1741 8.125C23.1741 9.22957 22.2786 10.125 21.1741 10.125C20.0695 10.125 19.1741 9.22957 19.1741 8.125C19.1741 7.02043 20.0695 6.125 21.1741 6.125C22.2786 6.125 23.1741 7.02043 23.1741 8.125Z" fill="#FCF2FF"/>
<path d="M17.1741 19.125C17.1741 21.3341 15.3832 23.125 13.1741 23.125C10.9649 23.125 9.17407 21.3341 9.17407 19.125C9.17407 16.9659 10.8847 15.2064 13.0245 15.1277C13.1164 15.1244 13.2013 15.0745 13.2449 14.9935L14.0438 13.5099C14.1268 13.3556 14.0295 13.1663 13.8548 13.1521C13.6347 13.1342 13.4078 13.125 13.1741 13.125C9.86036 13.125 7.17407 15.8113 7.17407 19.125C7.17407 22.4387 9.86036 25.125 13.1741 25.125C16.4191 25.125 19.0624 22.549 19.1706 19.3303C19.1746 19.2112 19.09 19.1082 18.9731 19.0848L17.4811 18.7864C17.3197 18.7541 17.1716 18.8841 17.1736 19.0487C17.1739 19.074 17.1741 19.0994 17.1741 19.125Z" fill="#FCF2FF"/>
<path d="M14.9641 11.082C15.8274 10.8204 16.2089 10.7847 16.7603 11.0354C16.8569 11.0793 17.0158 11.1949 17.2127 11.3952C17.2785 11.4621 17.3419 11.5316 17.4017 11.6006C17.4308 11.6342 17.4335 11.6831 17.4088 11.7201L15.2641 14.9371C14.6653 15.8354 15.183 17.0521 16.244 17.245L20.9952 18.1089C21.0612 18.1209 21.1965 18.1736 21.377 18.4573C21.5604 18.7455 21.7211 19.1705 21.8482 19.6988C22.1006 20.749 22.1622 21.9542 22.1738 22.6294C22.1878 23.436 22.8406 24.125 23.6874 24.125H24.6713L24.6741 24.125C25.2264 24.125 25.6741 23.6773 25.6741 23.125C25.6741 22.5727 25.2264 22.125 24.6741 22.125H24.2558C24.2022 22.125 24.1581 22.0829 24.1557 22.0293C24.121 21.2714 24.0297 20.2168 23.7927 19.2313C23.6414 18.6017 23.416 17.9363 23.0643 17.3836C22.7098 16.8265 22.1611 16.2881 21.353 16.1411L17.5001 15.4406C17.4293 15.4277 17.3949 15.3466 17.4348 15.2867L19.3243 12.4524C19.6514 11.9618 19.677 11.2854 19.2901 10.7623C19.1397 10.559 18.9119 10.2707 18.6387 9.99288C18.3777 9.72744 18.0149 9.40873 17.5879 9.21463C16.3617 8.65726 15.3894 8.86332 14.3841 9.16797C13.5799 9.41166 12.948 9.89889 12.5402 10.2826C12.3307 10.4797 12.1658 10.6633 12.0516 10.7997C11.9942 10.8682 11.9489 10.9257 11.9164 10.9683C11.9001 10.9896 11.887 11.0072 11.8771 11.0206L11.8707 11.0294C11.7472 11.1958 11.6741 11.4019 11.6741 11.625C11.6741 12.1773 12.1218 12.625 12.6741 12.625C13.0117 12.625 13.3103 12.4577 13.4913 12.2014C13.4942 12.1975 13.499 12.1911 13.5055 12.1826C13.5216 12.1615 13.5484 12.1273 13.5851 12.0836C13.6589 11.9954 13.7696 11.8719 13.9106 11.7393C14.2035 11.4637 14.5717 11.2009 14.9641 11.082Z" fill="#FCF2FF"/>
</g>
<defs>
<filter id="filter0_ii_18590_392" x="2.48657" y="0.6875" width="28.875" height="28.875" filterUnits="userSpaceOnUse" color-interpolation-filters="sRGB">
<feFlood flood-opacity="0" result="BackgroundImageFix"/>
<feBlend mode="normal" in="SourceGraphic" in2="BackgroundImageFix" result="shape"/>
<feColorMatrix in="SourceAlpha" type="matrix" values="0 0 0 0 0 0 0 0 0 0 0 0 0 0 0 0 0 0 127 0" result="hardAlpha"/>
<feOffset dx="1" dy="-1"/>
<feGaussianBlur stdDeviation="1.5"/>
<feComposite in2="hardAlpha" operator="arithmetic" k2="-1" k3="1"/>
<feColorMatrix type="matrix" values="0 0 0 0 0.188235 0 0 0 0 0.470588 0 0 0 0 0.843137 0 0 0 1 0"/>
<feBlend mode="normal" in2="shape" result="effect1_innerShadow_18590_392"/>
<feColorMatrix in="SourceAlpha" type="matrix" values="0 0 0 0 0 0 0 0 0 0 0 0 0 0 0 0 0 0 127 0" result="hardAlpha"/>
<feOffset dy="-1"/>
<feGaussianBlur stdDeviation="1.5"/>
<feComposite in2="hardAlpha" operator="arithmetic" k2="-1" k3="1"/>
<feColorMatrix type="matrix" values="0 0 0 0 0.27451 0 0 0 0 0.34902 0 0 0 0 0.8 0 0 0 1 0"/>
<feBlend mode="normal" in2="effect1_innerShadow_18590_392" result="effect2_innerShadow_18590_392"/>
</filter>
<filter id="filter1_f_18590_392" x="25.9241" y="1.4375" width="5.5" height="28.375" filterUnits="userSpaceOnUse" color-interpolation-filters="sRGB">
<feFlood flood-opacity="0" result="BackgroundImageFix"/>
<feBlend mode="normal" in="SourceGraphic" in2="BackgroundImageFix" result="shape"/>
<feGaussianBlur stdDeviation="1" result="effect1_foregroundBlur_18590_392"/>
</filter>
<filter id="filter2_f_18590_392" x="3.20044" y="0.75" width="27.2812" height="5.5" filterUnits="userSpaceOnUse" color-interpolation-filters="sRGB">
<feFlood flood-opacity="0" result="BackgroundImageFix"/>
<feBlend mode="normal" in="SourceGraphic" in2="BackgroundImageFix" result="shape"/>
<feGaussianBlur stdDeviation="1" result="effect1_foregroundBlur_18590_392"/>
</filter>
<filter id="filter3_f_18590_392" x="6.17407" y="5.125" width="20.5" height="21" filterUnits="userSpaceOnUse" color-interpolation-filters="sRGB">
<feFlood flood-opacity="0" result="BackgroundImageFix"/>
<feBlend mode="normal" in="SourceGraphic" in2="BackgroundImageFix" result="shape"/>
<feGaussianBlur stdDeviation="0.5" result="effect1_foregroundBlur_18590_392"/>
</filter>
<filter id="filter4_ii_18590_392" x="6.77407" y="5.725" width="19.3" height="19.8" filterUnits="userSpaceOnUse" color-interpolation-filters="sRGB">
<feFlood flood-opacity="0" result="BackgroundImageFix"/>
<feBlend mode="normal" in="SourceGraphic" in2="BackgroundImageFix" result="shape"/>
<feColorMatrix in="SourceAlpha" type="matrix" values="0 0 0 0 0 0 0 0 0 0 0 0 0 0 0 0 0 0 127 0" result="hardAlpha"/>
<feOffset dx="-0.4" dy="0.4"/>
<feGaussianBlur stdDeviation="0.375"/>
<feComposite in2="hardAlpha" operator="arithmetic" k2="-1" k3="1"/>
<feColorMatrix type="matrix" values="0 0 0 0 0.901961 0 0 0 0 0.854902 0 0 0 0 0.980392 0 0 0 1 0"/>
<feBlend mode="normal" in2="shape" result="effect1_innerShadow_18590_392"/>
<feColorMatrix in="SourceAlpha" type="matrix" values="0 0 0 0 0 0 0 0 0 0 0 0 0 0 0 0 0 0 127 0" result="hardAlpha"/>
<feOffset dx="0.4" dy="-0.4"/>
<feGaussianBlur stdDeviation="0.2"/>
<feComposite in2="hardAlpha" operator="arithmetic" k2="-1" k3="1"/>
<feColorMatrix type="matrix" values="0 0 0 0 1 0 0 0 0 0.988235 0 0 0 0 1 0 0 0 1 0"/>
<feBlend mode="normal" in2="effect1_innerShadow_18590_392" result="effect2_innerShadow_18590_392"/>
</filter>
<linearGradient id="paint0_linear_18590_392" x1="16.4241" y1="5.26201" x2="16.4241" y2="38.5147" gradientUnits="userSpaceOnUse">
<stop stop-color="#5CB7FF"/>
<stop offset="1" stop-color="#4878DD"/>
</linearGradient>
<radialGradient id="paint1_radial_18590_392" cx="0" cy="0" r="1" gradientUnits="userSpaceOnUse" gradientTransform="translate(28.1428 3.78125) rotate(136.771) scale(2.14444 2.50466)">
<stop stop-color="#7BD7FF"/>
<stop offset="1" stop-color="#7BD7FF" stop-opacity="0"/>
</radialGradient>
<linearGradient id="paint2_linear_18590_392" x1="29.1741" y1="4.1875" x2="29.1741" y2="27.0625" gradientUnits="userSpaceOnUse">
<stop stop-color="#7FD9FF"/>
<stop offset="1" stop-color="#639DF4"/>
</linearGradient>
<linearGradient id="paint3_linear_18590_392" x1="28.8879" y1="3.75002" x2="3.35669" y2="3.75002" gradientUnits="userSpaceOnUse">
<stop stop-color="#7DD8FF"/>
<stop offset="1" stop-color="#5DB6FF"/>
</linearGradient>
</defs>
</svg>

<svg width="100%" height="100%" viewBox="0 0 32 32" xmlns="http://www.w3.org/2000/svg"><g filter="url(#a)"><rect width="27.875" height="27.875" x="2.487" y="1.688" fill="url(#b)" rx="3.6"/><rect width="27.875" height="27.875" x="2.487" y="1.688" fill="url(#c)" rx="3.6"/></g><g filter="url(#d)"><path stroke="url(#e)" stroke-linecap="round" stroke-width="1.5" d="M28.674 4.188v22.875"/></g><g filter="url(#f)"><path stroke="url(#g)" stroke-linecap="round" stroke-width="1.5" d="M5.95 3.5h21.782"/></g><g fill="#579FFF" filter="url(#h)"><path d="M23.174 8.125a2 2 0 1 1-4 0 2 2 0 0 1 4 0M17.174 19.125a4 4 0 1 1-4.15-3.997.26.26 0 0 0 .22-.135l.8-1.483a.24.24 0 0 0-.19-.358 8 8 0 0 0-.68-.027 6 6 0 1 0 5.997 6.205.244.244 0 0 0-.198-.245l-1.492-.299a.26.26 0 0 0-.307.263z"/><path d="M14.964 11.082c.863-.262 1.245-.297 1.796-.047.097.044.256.16.453.36q.099.101.189.206c.029.033.031.082.007.12l-2.145 3.216a1.5 1.5 0 0 0 .98 2.308l4.751.864c.066.012.201.065.382.348.183.288.344.713.471 1.242.253 1.05.314 2.255.326 2.93a1.52 1.52 0 0 0 1.513 1.496h.987a1 1 0 1 0 0-2h-.418a.1.1 0 0 1-.1-.096c-.035-.758-.126-1.812-.363-2.798-.152-.63-.377-1.295-.729-1.847-.354-.558-.903-1.096-1.711-1.243l-3.853-.7a.1.1 0 0 1-.065-.154l1.89-2.835a1.47 1.47 0 0 0-.035-1.69 7 7 0 0 0-.651-.77c-.261-.265-.624-.583-1.051-.777-1.226-.558-2.199-.352-3.204-.047-.804.244-1.436.73-1.844 1.115a6 6 0 0 0-.663.738l-.006.008a1 1 0 1 0 1.635 1.153l.08-.098c.073-.089.184-.212.325-.345.293-.275.66-.538 1.053-.657"/></g><g fill="#FCF2FF" filter="url(#i)"><path d="M23.174 8.125a2 2 0 1 1-4 0 2 2 0 0 1 4 0M17.174 19.125a4 4 0 1 1-4.15-3.997.26.26 0 0 0 .22-.135l.8-1.483a.24.24 0 0 0-.19-.358 8 8 0 0 0-.68-.027 6 6 0 1 0 5.997 6.205.244.244 0 0 0-.198-.245l-1.492-.299a.26.26 0 0 0-.307.263z"/><path d="M14.964 11.082c.863-.262 1.245-.297 1.796-.047.097.044.256.16.453.36q.099.101.189.206c.029.033.031.082.007.12l-2.145 3.216a1.5 1.5 0 0 0 .98 2.308l4.751.864c.066.012.201.065.382.348.183.288.344.713.471 1.242.253 1.05.314 2.255.326 2.93a1.52 1.52 0 0 0 1.513 1.496h.987a1 1 0 1 0 0-2h-.418a.1.1 0 0 1-.1-.096c-.035-.758-.126-1.812-.363-2.798-.152-.63-.377-1.295-.729-1.847-.354-.558-.903-1.096-1.711-1.243l-3.853-.7a.1.1 0 0 1-.065-.154l1.89-2.835a1.47 1.47 0 0 0-.035-1.69 7 7 0 0 0-.651-.77c-.261-.265-.624-.583-1.051-.777-1.226-.558-2.199-.352-3.204-.047-.804.244-1.436.73-1.844 1.115a6 6 0 0 0-.663.738l-.006.008a1 1 0 1 0 1.635 1.153l.08-.098c.073-.089.184-.212.325-.345.293-.275.66-.538 1.053-.657"/></g><defs><filter id="a" width="28.875" height="28.875" x="2.487" y=".688" color-interpolation-filters="sRGB" filterUnits="userSpaceOnUse"><feFlood flood-opacity="0" result="BackgroundImageFix"/><feBlend in="SourceGraphic" in2="BackgroundImageFix" result="shape"/><feColorMatrix in="SourceAlpha" result="hardAlpha" values="0 0 0 0 0 0 0 0 0 0 0 0 0 0 0 0 0 0 127 0"/><feOffset dx="1" dy="-1"/><feGaussianBlur stdDeviation="1.5"/><feComposite in2="hardAlpha" k2="-1" k3="1" operator="arithmetic"/><feColorMatrix values="0 0 0 0 0.188235 0 0 0 0 0.470588 0 0 0 0 0.843137 0 0 0 1 0"/><feBlend in2="shape" result="effect1_innerShadow_18590_392"/><feColorMatrix in="SourceAlpha" result="hardAlpha" values="0 0 0 0 0 0 0 0 0 0 0 0 0 0 0 0 0 0 127 0"/><feOffset dy="-1"/><feGaussianBlur stdDeviation="1.5"/><feComposite in2="hardAlpha" k2="-1" k3="1" operator="arithmetic"/><feColorMatrix values="0 0 0 0 0.27451 0 0 0 0 0.34902 0 0 0 0 0.8 0 0 0 1 0"/><feBlend in2="effect1_innerShadow_18590_392" result="effect2_innerShadow_18590_392"/></filter><filter id="d" width="5.5" height="28.375" x="25.924" y="1.438" color-interpolation-filters="sRGB" filterUnits="userSpaceOnUse"><feFlood flood-opacity="0" result="BackgroundImageFix"/><feBlend in="SourceGraphic" in2="BackgroundImageFix" result="shape"/><feGaussianBlur result="effect1_foregroundBlur_18590_392" stdDeviation="1"/></filter><filter id="f" width="27.281" height="5.5" x="3.2" y=".75" color-interpolation-filters="sRGB" filterUnits="userSpaceOnUse"><feFlood flood-opacity="0" result="BackgroundImageFix"/><feBlend in="SourceGraphic" in2="BackgroundImageFix" result="shape"/><feGaussianBlur result="effect1_foregroundBlur_18590_392" stdDeviation="1"/></filter><filter id="h" width="20.5" height="21" x="6.174" y="5.125" color-interpolation-filters="sRGB" filterUnits="userSpaceOnUse"><feFlood flood-opacity="0" result="BackgroundImageFix"/><feBlend in="SourceGraphic" in2="BackgroundImageFix" result="shape"/><feGaussianBlur result="effect1_foregroundBlur_18590_392" stdDeviation=".5"/></filter><filter id="i" width="19.3" height="19.8" x="6.774" y="5.725" color-interpolation-filters="sRGB" filterUnits="userSpaceOnUse"><feFlood flood-opacity="0" result="BackgroundImageFix"/><feBlend in="SourceGraphic" in2="BackgroundImageFix" result="shape"/><feColorMatrix in="SourceAlpha" result="hardAlpha" values="0 0 0 0 0 0 0 0 0 0 0 0 0 0 0 0 0 0 127 0"/><feOffset dx="-.4" dy=".4"/><feGaussianBlur stdDeviation=".375"/><feComposite in2="hardAlpha" k2="-1" k3="1" operator="arithmetic"/><feColorMatrix values="0 0 0 0 0.901961 0 0 0 0 0.854902 0 0 0 0 0.980392 0 0 0 1 0"/><feBlend in2="shape" result="effect1_innerShadow_18590_392"/><feColorMatrix in="SourceAlpha" result="hardAlpha" values="0 0 0 0 0 0 0 0 0 0 0 0 0 0 0 0 0 0 127 0"/><feOffset dx=".4" dy="-.4"/><feGaussianBlur stdDeviation=".2"/><feComposite in2="hardAlpha" k2="-1" k3="1" operator="arithmetic"/><feColorMatrix values="0 0 0 0 1 0 0 0 0 0.988235 0 0 0 0 1 0 0 0 1 0"/><feBlend in2="effect1_innerShadow_18590_392" result="effect2_innerShadow_18590_392"/></filter><linearGradient id="b" x1="16.424" x2="16.424" y1="5.262" y2="38.515" gradientUnits="userSpaceOnUse"><stop stop-color="#5CB7FF"/><stop offset="1" stop-color="#4878DD"/></linearGradient><linearGradient id="e" x1="29.174" x2="29.174" y1="4.188" y2="27.063" gradientUnits="userSpaceOnUse"><stop stop-color="#7FD9FF"/><stop offset="1" stop-color="#639DF4"/></linearGradient><linearGradient id="g" x1="28.888" x2="3.357" y1="3.75" y2="3.75" gradientUnits="userSpaceOnUse"><stop stop-color="#7DD8FF"/><stop offset="1" stop-color="#5DB6FF"/></linearGradient><radialGradient id="c" cx="0" cy="0" r="1" gradientTransform="matrix(-1.56249 1.46876 -1.71548 -1.82495 28.143 3.781)" gradientUnits="userSpaceOnUse"><stop stop-color="#7BD7FF"/><stop offset="1" stop-color="#7BD7FF" stop-opacity="0"/></radialGradient></defs></svg>
